X:1
T:Title
%%score ( 1 2 ) ( 3 4 )
L:1/8
Q:1/4=68
M:6/8
K:Db
V:1 treble nm="Strings 1, Treble"
V:2 treble 
V:3 bass nm="Strings 1, Bass"
V:4 bass 
V:1
 z3 z2 D/[DE]/ | [DF][DF][DF] [DF][DE]D | [CG][CA][CB] [CA][CG][CE] | [DF][DF][DF] [Fd][Fc][DB] | %4
 [CA]3- [CA]2 D/E/ | [DF][DF][DF] [DF][CE]D | [DG][DA][GB] [GA][Gc][Ge] | %7
 [Ad][Ac][GB] [FA][_F=G][=FA] | [Fd][Gc][Ge] [Fd]2[Q:1/4=68] [DF]/[EG]/[Q:1/4=12] | %9
 [FA]3- [FA][Af][Ge] | [Fd]3- [Fd][DF][FA] | [GB]3- [GB][=Gc][Gd] | c3- [Gc]2 [Fd]/[Ge]/ | %13
 [Af]3- [Af][Ae][Ad] | [Gd]3- [Gd][Gc][GB] | [FA]3- [FA][Gc][Ge] | %16
 d-[Gd-][Gd-] [Fd]3[Q:1/4=12][Q:1/4=68] |] %17
V:2
 x6 | x6 | x6 | x6 | x6 | x6 | x6 | x6 | x6 | x6 | x6 | x6 | A3 z3 | x6 | x6 | x6 | .F3 z3 |] %17
V:3
 z3 z2 [D,F,]/[D,G,]/ | [D,A,][D,A,][D,A,] [D,A,][D,G,][D,F,] | %2
w: 1.~Hal le|lu jah~ to~ Je sus!~ sal|
 [A,,E,][A,,E,][A,,E,] [A,,E,][A,,A,][A,,A,] | [D,A,][D,A,][D,A,] [B,,B,][B,,B,][E,=G,] | %4
w: va tion~ is~ flow ing,~ Oh,~|won der ful~ show ers~ of~|
 z3 z2 .F, | [D,A,][D,A,][D,A,] [D,A,][E,A,][F,A,] | [G,B,][G,B,][G,D] [E,C][E,E][E,C] | %7
w: Poor~|sin ners~ are~ melt ing~ and~|pen i tents~ bow ing,~ And,~|
 [F,D][F,D][G,D] [A,D][A,D][A,D] | [A,,A,][A,,A,][A,,A,] [D,A,]2 [D,A,] | %9
w: trust ing~ in~ Je sus,~ they~|feel~ His~ em brace.~ *|
 [D,D][D,D][D,D] [D,D][D,D][D,A,] | [D,A,][D,A,][D,A,] [D,A,][D,A,][D,D] | %11
w: ||
 [G,D][G,D][G,D] [G,D][E,E][E,E] | [A,E][A,E][A,E] [A,E]2 [D,D]/[D,D]/ | %13
w: ||
 [D,D][D,D][D,D] [D,D][E,C][F,D] | [G,B,][G,B,][G,B,] [G,B,][G,D][G,D] | %15
w: ||
 [A,D][A,D][A,D] [A,,D][A,,A,][A,,A,] | .A,3 z3 |] %17
w: ||
V:4
 x6 | x6 | x6 | x6 | [A,,A,]3- [A,,A,]2 D,/-[D,G,]/ | x6 | x6 | x6 | x6 | x6 | x6 | x6 | x6 | x6 | %14
 x6 | x6 | D,-[D,-B,][D,-B,] [D,A,]3 |] %17

